images/texton.svg

<?xml version="1.0" encoding="UTF-8" standalone="no"?>
<!-- Created with Inkscape (http://www.inkscape.org/) -->

<svg
   xmlns:svg="http://www.w3.org/2000/svg"
   xmlns="http://www.w3.org/2000/svg"
   xmlns:xlink="http://www.w3.org/1999/xlink"
   version="1.0"
   width="33.550999"
   height="46.334133"
   id="svg2">
  <defs
     id="defs5">
    <linearGradient
       id="linearGradient3166">
      <stop
         id="stop3168"
         style="stop-color:#ffffff;stop-opacity:1"
         offset="0" />
      <stop
         id="stop3170"
         style="stop-color:#ffff00;stop-opacity:1"
         offset="1" />
    </linearGradient>
    <linearGradient
       x1="0.94254935"
       y1="-31.669659"
       x2="104.37702"
       y2="20.434471"
       id="linearGradient3172"
       xlink:href="#linearGradient3166"
       gradientUnits="userSpaceOnUse"
       gradientTransform="matrix(0.7083638,0,0,1.0012565,0.1338084,32.632067)" />
  </defs>
  <g
     transform="translate(-74.261733,46.019192)"
     id="g3085">
    <g
       id="g3077">
      <path
         d="m 78.103733,-1.435059 24.519997,0 c 2.225,0 3.439,-1.447 3.439,-3.441 l 0,-27.28 c 0,-1.73 -1.732,-3.441 -3.439,-3.441 l -4.388997,0"
         id="path2999"
         style="fill:#ffffff;stroke:#010101;stroke-width:3.5;stroke-linecap:round;stroke-linejoin:round" />
      <path
         d="m 98.234733,-11.845059 c 0,1.836 -1.345,3.201 -3.441,4.047 l -16.69,6.363 0,-34.162 16.69,-8.599 c 2.228,-0.394 3.441,0.84 3.441,2.834 l 0,29.517 z"
         id="path3005"
         style="fill:#ffffff;stroke:#010101;stroke-width:3.5;stroke-linecap:round;stroke-linejoin:round" />
      <path
         d="m 80.791733,-7.830059 c 0,0 -1.351,-0.543 -2.702,-0.543 -1.351,0 -2.703,0.543 -2.703,0.543"
         id="path3007"
         style="fill:none;stroke:#010101;stroke-width:2.25;stroke-linecap:round;stroke-linejoin:round" />
      <path
         d="m 80.791733,-18.431059 c 0,0 -1.239,-0.543 -2.815,-0.543 -1.577,0 -2.59,0.543 -2.59,0.543"
         id="path3009"
         style="fill:none;stroke:#010101;stroke-width:2.25;stroke-linecap:round;stroke-linejoin:round" />
      <path
         d="m 80.791733,-28.759059 c 0,0 -1.125,-0.544 -2.927,-0.544 -1.802,0 -2.478,0.544 -2.478,0.544"
         id="path3011"
         style="fill:none;stroke:#010101;stroke-width:2.25;stroke-linecap:round;stroke-linejoin:round" />
      <line
         id="line3013"
         y2="-38.93206"
         y1="-3.904058"
         x2="84.576729"
         x1="84.576729"
         style="fill:none;stroke:#010101;stroke-width:2.25;stroke-linecap:round;stroke-linejoin:round" />
    </g>
  </g>
</svg>

<?xml version="1.0" encoding="UTF-8" standalone="no"?>
<!-- Created with Inkscape (http://www.inkscape.org/) -->
<svg
   xmlns:svg="http://www.w3.org/2000/svg"
   xmlns="http://www.w3.org/2000/svg"
   xmlns:xlink="http://www.w3.org/1999/xlink"
   version="1.0"
   width="75"
   height="54"
   id="svg2">
  <defs
     id="defs5"><linearGradient
   id="linearGradient3166">
  <stop
     id="stop3168"
     style="stop-color:#ffffff;stop-opacity:1"
     offset="0" />
  <stop
     id="stop3170"
     style="stop-color:#ffff00;stop-opacity:1"
     offset="1" />
</linearGradient>
<linearGradient
   x1="0.94254935"
   y1="-31.669659"
   x2="104.37702"
   y2="20.434471"
   id="linearGradient3172"
   xlink:href="#linearGradient3166"
   gradientUnits="userSpaceOnUse"
   gradientTransform="matrix(0.7083638,0,0,1.0012565,0.1338084,32.632067)" />

	

		
		
		
		
		
		
		
		
		
	
			
		
			
		
				
			
				
			</defs>
  <path
     d="M 0.84217214,0.84217214 L 74.157828,0.84217214 L 74.157828,53.157828 L 0.84217214,53.157828 L 0.84217214,0.84217214 z"
     id="path9"
     style="fill:url(#linearGradient3172);fill-opacity:1;fill-rule:nonzero;stroke:#c0a000;stroke-width:2;stroke-linecap:butt;stroke-linejoin:miter;stroke-miterlimit:4;stroke-dasharray:none;stroke-opacity:1" />
  <g
     transform="translate(-53.537231,49.852125)"
     id="g3085">
    <g
       id="g3077">
      <path
         d="M 78.103733,-1.435059 L 102.62373,-1.435059 C 104.84873,-1.435059 106.06273,-2.882059 106.06273,-4.876059 L 106.06273,-32.156059 C 106.06273,-33.886059 104.33073,-35.597059 102.62373,-35.597059 L 98.234733,-35.597059"
         id="path2999"
         style="fill:#ffffff;stroke:#010101;stroke-width:3.5;stroke-linecap:round;stroke-linejoin:round" />
      <path
         d="M 98.234733,-11.845059 C 98.234733,-10.009059 96.889733,-8.644059 94.793733,-7.798059 L 78.103733,-1.435059 L 78.103733,-35.597059 L 94.793733,-44.196059 C 97.021733,-44.590059 98.234733,-43.356059 98.234733,-41.362059 L 98.234733,-11.845059 z"
         id="path3005"
         style="fill:#ffffff;stroke:#010101;stroke-width:3.5;stroke-linecap:round;stroke-linejoin:round" />
      <path
         d="M 80.791733,-7.830059 C 80.791733,-7.830059 79.440733,-8.373059 78.089733,-8.373059 C 76.738733,-8.373059 75.386733,-7.830059 75.386733,-7.830059"
         id="path3007"
         style="fill:none;stroke:#010101;stroke-width:2.25;stroke-linecap:round;stroke-linejoin:round" />
      <path
         d="M 80.791733,-18.431059 C 80.791733,-18.431059 79.552733,-18.974059 77.976733,-18.974059 C 76.399733,-18.974059 75.386733,-18.431059 75.386733,-18.431059"
         id="path3009"
         style="fill:none;stroke:#010101;stroke-width:2.25;stroke-linecap:round;stroke-linejoin:round" />
      <path
         d="M 80.791733,-28.759059 C 80.791733,-28.759059 79.666733,-29.303059 77.864733,-29.303059 C 76.062733,-29.303059 75.386733,-28.759059 75.386733,-28.759059"
         id="path3011"
         style="fill:none;stroke:#010101;stroke-width:2.25;stroke-linecap:round;stroke-linejoin:round" />
      <line
         id="line3013"
         y2="-38.93206"
         y1="-3.904058"
         x2="84.576729"
         x1="84.576729"
         style="fill:none;stroke:#010101;stroke-width:2.25;stroke-linecap:round;stroke-linejoin:round" />
    </g>
  </g>
</svg>
